24x24/apps/agent.svg

<svg xmlns="http://www.w3.org/2000/svg" width="24" height="24" version="1">
 <rect style="opacity:0.2" width="20" height="20" x="2" y="2.5" rx="10" ry="10"/>
 <rect style="fill:#277cc5" width="20" height="20" x="2" y="2" rx="10" ry="10"/>
 <path style="opacity:0.3" d="M 12.051758,2.5 10.893555,2.631836 9.463867,3.0244141 9.1933595,3.2871094 10.081055,3.8994141 V 4.2490234 L 9.4999995,4.5986328 10.198242,5.517578 10.506836,5.3427735 10.893555,4.7304688 c 0.596935,-0.1845004 1.131842,-0.3939002 1.699219,-0.65625 L 13,2.8935547 Z M 9.3095705,2.5878906 8.810547,2.6591797 8.574219,2.8935547 8.1865235,2.9501953 7.8408205,3.1123047 7.6728515,3.1933594 7.5703125,3.3310547 8.0722655,3.4179688 8.265625,3.243164 8.652344,3.15625 C 8.9170545,3.0275461 9.182993,2.9404248 9.463867,2.8496094 Z M 7.029297,3.6367188 6.9521485,3.8115235 6.9902335,4.2490234 6.6816395,4.5117187 6.48828,4.9921875 H 6.874999 L 7.0683585,4.555664 C 7.234997,4.4378543 7.4005895,4.3184778 7.5703115,4.2050781 L 7.95703,4.336914 C 8.214515,4.5117967 8.471793,4.6867116 8.729491,4.8613281 L 9.11621,4.5117187 8.6904285,4.336914 8.4970695,3.9433594 7.7626945,3.8554688 7.7246095,3.6367188 7.376953,3.7246094 7.222656,4.0302734 Z m 9.896484,0.3496093 -0.732422,0.1757813 -0.46582,0.305664 v 0.2626953 l -0.732422,0.4804688 0.153321,0.7001955 0.426758,-0.306641 0.269531,0.306641 0.308593,0.1748045 0.193359,-0.524414 -0.115234,-0.3066405 0.115234,-0.21875 0.424805,-0.5361331 h 0.19336 l -0.19336,0.5800781 v 0.393555 c 0.17754,-0.048305 0.360305,-0.06433 0.541992,-0.086914 L 16.810547,5.736328 16.772462,5.955078 16.19336,6.435547 15.612306,6.3046875 V 5.955078 L 15.341798,6.129883 15.458986,6.5355 H 15.033204 L 14.801759,6.8291015 14.510743,7.15625 13.990235,7.2666015 14.298829,7.571289 14.376954,7.876953 H 13.990235 L 13.5,8.1396485 v 0.788086 h 0.219727 l 0.211915,0.2402345 0.483398,-0.2402345 0.192383,-0.4814455 0.348633,-0.21875 0.07715,-0.1748045 0.579102,-0.129883 0.30957,0.348633 0.347656,0.1748045 -0.193359,0.393555 0.30957,-0.087891 0.154297,-0.3916015 -0.386719,-0.4375 h 0.155274 l 0.386718,0.3046875 0.07715,0.4375 0.346679,0.393555 0.07715,-0.569336 0.194336,-0.086914 c 0.191041,0.1982635 0.341049,0.433117 0.501953,0.65625 l 0.579101,0.043945 0.348633,0.2177735 -0.155273,0.21875 -0.347656,0.3066405 H 17.81543 l -0.657226,-0.21875 -0.347656,0.04297 -0.25,0.285156 L 15.844727,9.2333995 15.341798,9.10254 14.607423,9.189454 13.950196,9.364259 c -0.36858,0.4177295 -0.682291,0.833747 -1.031146,1.267578 l -0.424804,1.006836 0.193359,0.217773 -0.347656,0.524414 0.386719,0.918946 c 0.328554,0.371551 0.606389,0.74244 0.934466,1.114257 l 0.484375,-0.415039 0.211914,0.241211 0.520507,-0.328125 0.174805,0.196289 h 0.522461 l 0.298828,0.338868 -0.18457,0.601562 0.368164,0.415039 -0.01953,0.72168 0.270508,0.52539 -0.289064,0.436524 c -0.01925,0.321706 -0.01954,0.641129 -0.01954,0.96289 0.158348,0.435902 0.240359,0.870534 0.389883,1.309571 l 0.115234,0.700195 v 0.350586 h 0.420664 l 0.425781,-0.262695 h 0.366211 c 0.136584,-0.09512 0.267959,-0.197173 0.399414,-0.298828 l 0.489258,-0.553711 -0.0957,-0.28418 0.50293,-0.438477 -0.368164,-0.414062 0.445312,-0.371094 0.375003,-0.263672 0.193359,-0.216797 -0.116211,-0.483398 v -1.222656 l 0.397458,-0.744141 0.424805,-0.480469 0.463867,-1.136718 v -0.306641 c -0.228484,0.02877 -0.451306,0.05214 -0.674804,0.06836 l 0.461914,-0.461914 0.637695,-0.4375 0.348633,-0.392578 v -0.4375 c -0.07734,-0.145815 -0.154554,-0.291685 -0.232422,-0.4375 l -0.30957,0.349609 -0.231446,-0.261718 -0.347656,-0.262696 v -0.568359 l 0.40625,0.458984 0.444336,-0.06543 c 0.202415,0.183703 0.401562,0.359202 0.579102,0.568359 l 0.04395,-0.0498 C 21.741358,8.7431035 20.737585,6.662153 19.21875,5.078125 19.134862,4.9921844 19.046333,4.8996747 18.977539,4.8320312 18.862067,4.7196302 18.740928,4.613568 18.620117,4.5068359 L 18.510742,4.6865234 18.124023,5.1240235 17.62207,4.4999999 h 0.501953 L 18.356445,4.336914 17.428711,4.1621094 Z M 6.0029295,4.0009766 c -0.056563,0.0424 -0.114303,0.083388 -0.1699215,0.1269532 l 0.076171,0.3398437 c 0,0 -0.3533835,0.038795 -0.557617,0.06543 C 3.2994989,6.3603175 2.0025507,9.0154285 2,11.991211 2.080483,12.123722 2.1601563,12.25 2.1601563,12.25 l 0.8115234,0.480469 0.8125,0.219727 0.3466797,0.4375 0.5410156,0.392578 0.3095703,-0.04297 0.2314452,0.104493 v 0.07031 l -0.3085936,0.830078 -0.2324219,0.350586 0.077148,0.174805 -0.2490237,0.655273 0.7509768,1.268555 0.4962265,0.611328 0.308594,0.436524 -0.038085,0.918945 0.431508,0.524414 -0.12793,0.554687 c 0.445885,0.307281 0.9213025,0.573016 1.4160155,0.805665 L 7.91797,20.86328 8.033204,20.557616 8.536134,20.381835 8.9999995,19.419921 8.8066415,19.158202 9.076173,18.614418 9.656251,18.482582 9.9999995,17.933593 9.888673,17.060546 l 0.562764,-0.65625 0.07813,-0.65625 C 9.8952065,15.433566 9.1657615,15.109911 8.536134,14.786132 L 8.2265635,14.173827 7.647462,14.042968 7.338868,13.463043 6.566407,13.549957 5.9091805,13 5.2128915,13.430663 v 0.09668 C 5.002394,13.466606 4.744063,13.458956 4.5566406,13.34375 L 4.4013672,12.90625 V 12.424805 L 3.9375,12.46875 C 3.976197,12.16256 4.015726,11.856918 4.0546875,11.550781 H 3.7841797 l -0.2705078,0.34961 -0.2705079,0.130859 -0.3867187,-0.217773 -0.039063,-0.481446 0.077149,-0.524414 0.5800781,-0.4375 H 3.9375 l 0.077148,-0.262695 0.5800781,0.130859 0.3747107,0.525391 0.078125,-0.875 L 5.832031,9.277344 6.102539,8.621094 6.642578,8.602219 6.9521485,8.166672 7.647461,8.0338595 7.995117,7.510422 H 6.9521485 L 7.609375,7.203781 H 8.0722655 L 8.729492,6.785156 8.8066405,6.5234375 8.574219,6.3046875 8.303711,6.216797 8.381836,5.955078 8.1884765,5.5615235 7.7246095,5.7353515 7.801758,5.385742 7.260742,5.080078 6.836914,5.823242 6.874999,6.0859375 6.449218,6.260742 6.17871,6.8291015 6.0634755,6.3046875 5.3291005,5.998047 5.2128895,5.604492 6.17871,5.036133 6.604491,4.6425781 6.642576,4.1621094 6.411131,4.0302734 Z M 13.345803,4.4558203 12.786133,4.630625 12.533032,4.586679 h -0.001 l -0.03906,0.2626953 0.371265,0.1748047 0.712991,-0.3066407 -0.231446,-0.2617187 z m -5.350686,0.1867578 -0.3085935,0.21875 0.385742,0.2626954 H 8.381836 V 4.8173829 Z M 14.09961,5.6484375 V 5.911133 l 0.155273,0.1748045 V 6.479492 L 14.176758,7.003906 14.602539,6.916992 14.911133,6.6103515 14.640625,6.348633 C 14.549784,6.106795 14.445728,5.880391 14.332031,5.6484375 Z m -0.153321,0.524414 -0.271484,0.08789 0.07813,0.480469 0.34668,-0.173828 z M 8.614258,6.9609375 8.729492,7.571289 8.9609375,7.222656 Z m 10.088867,3.4091795 0.445312,0.50293 0.521485,1.114258 0.308593,0.350586 -0.155273,0.392578 0.293945,0.333008 c -0.134964,0.0091 -0.269428,0.01855 -0.408203,0.01855 -0.246054,-0.516888 -0.430787,-1.034448 -0.618164,-1.575195 l -0.428906,-0.371094 -0.173829,-0.634766 z"/>
 <path style="opacity:0.2;fill:#f4f4f7" d="M 12,2 C 6.46,2 2,6.46 2,12 2,12.08394 2.00382,12.166571 2.00586,12.25 2.1381952,6.8269315 6.543937,2.5 12,2.5 c 5.456063,0 9.861805,4.3269315 9.99414,9.75 C 21.996176,12.166571 22,12.083937 22,12 22,6.46 17.54,2 12,2 Z"/>
 <g style="opacity:0.2" transform="matrix(1,0,0,-1,-541,-334.5)">
  <path d="m 552,-354 v 10 h 2 v -10 z m 0,12 v 2 h 2 v -2 z"/>
 </g>
 <g style="fill:#f4f4f7" transform="matrix(1,0,0,-1,-541,-335)">
  <path d="m 552,-354 v 10 h 2 v -10 z m 0,12 v 2 h 2 v -2 z"/>
 </g>
</svg>

<svg xmlns="http://www.w3.org/2000/svg" width="24" height="24" version="1"><rect style="opacity:.2" width="20" height="20" x="2" y="2.5" rx="10" ry="10"/><rect style="fill:#277cc5" width="20" height="20" x="2" y="2" rx="10" ry="10"/><path style="opacity:.3" d="m12.052 2.5-1.158.132-1.43.392-.27.263.887.612v.35l-.581.35.698.919.309-.175.387-.613a13.298 13.298 0 0 0 1.699-.656L13 2.894zm-2.742.088-.5.071-.236.235-.387.056-.346.162-.168.081-.103.138.502.087.194-.175.386-.087c.265-.128.531-.216.812-.306zM7.03 3.637l-.078.175.038.437-.308.263-.194.48h.387l.193-.436c.167-.118.333-.238.502-.35l.387.13.772.525.387-.35-.426-.174-.193-.394-.734-.088-.038-.218-.348.088-.154.305zm9.896.35-.733.175-.465.306v.262l-.733.48.153.701.427-.307.27.307.308.175.194-.524-.116-.307.116-.219.424-.536h.194l-.194.58v.394c.178-.049.36-.065.542-.087l-.502.35-.039.218-.579.48-.58-.13v-.35l-.271.175.117.405h-.426l-.231.294-.291.327-.52.11.308.305.078.306h-.387l-.49.263v.788h.22l.212.24.483-.24.192-.482.35-.218.076-.175.58-.13.309.348.348.175-.194.394.31-.088.154-.392-.387-.437h.156l.386.305.077.437.347.394.077-.57.195-.087c.19.199.34.433.502.657l.579.044.348.217-.155.22-.348.306h-.502l-.657-.219-.347.043-.25.285-.716-.722-.503-.13-.735.086-.657.175c-.368.418-.682.834-1.03 1.268l-.426 1.007.194.217-.348.525.387.919c.328.371.606.742.934 1.114l.485-.415.211.241.52-.328.176.196h.522l.299.34-.185.6.369.416-.02.722.27.525-.288.436c-.02.322-.02.642-.02.963.158.436.24.87.39 1.31l.115.7v.35h.42l.427-.262h.366c.136-.095.268-.197.4-.299l.488-.554-.095-.284.503-.438-.368-.414.445-.371.375-.264.193-.217-.116-.483V15.66l.397-.744.425-.48.464-1.137v-.307c-.228.029-.451.052-.675.069l.462-.462.638-.438.349-.392v-.438l-.233-.437-.31.35-.23-.263-.349-.262v-.569l.407.46.444-.066c.202.184.402.36.58.568l.043-.05a9.947 9.947 0 0 0-2.736-5.985l-.241-.246c-.116-.112-.237-.218-.358-.325l-.11.18-.386.437-.502-.624h.502l.232-.163-.927-.175zM6.003 4c-.057.042-.114.083-.17.127l.076.34s-.353.039-.557.065A9.958 9.958 0 0 0 2 11.991c.08.133.16.259.16.259l.812.48.812.22.347.438.54.392.31-.043.232.105v.07l-.309.83-.232.35.077.176-.249.655.751 1.268.496.612.309.436-.038.92.431.524-.128.554c.446.308.922.573 1.416.806l.181-.18.115-.305.503-.176L9 19.42l-.193-.262.27-.544.58-.131.343-.55-.111-.872.562-.657.079-.656c-.635-.314-1.364-.638-1.994-.962l-.31-.612-.579-.131-.308-.58-.773.087L5.91 13l-.696.43v.097c-.21-.06-.469-.068-.656-.183l-.156-.438v-.481l-.463.044.117-.918h-.27l-.271.35-.27.13-.388-.218-.039-.481.078-.524.58-.438h.462l.078-.263.58.131.374.526.079-.875.784-.612.27-.656.54-.019.31-.435.695-.133.348-.524H6.952l.657-.306h.463l.657-.419.078-.262-.233-.218-.27-.088.078-.262-.194-.393-.463.173.077-.35-.541-.305-.424.743.038.263-.426.175-.27.568-.116-.524-.734-.307-.116-.394.966-.568.425-.393.039-.48-.232-.133zm7.343.455-.56.175-.253-.044h-.001l-.039.262.371.175.713-.306-.231-.262zm-5.35.187-.31.218.386.263h.31v-.307zM14.1 5.648v.263l.155.175v.393l-.078.525.426-.087.308-.307-.27-.261a7.842 7.842 0 0 0-.309-.7zm-.154.525-.271.088.078.48.347-.174zm-5.332.788.115.61.232-.348zm10.09 3.41.444.502.522 1.114.309.35-.156.393.294.333c-.135.01-.27.019-.408.019a15.081 15.081 0 0 1-.618-1.575l-.43-.371-.173-.635z"/><path style="opacity:.2;fill:#f4f4f7" d="M12 2C6.46 2 2 6.46 2 12c0 .084.004.167.006.25A9.976 9.976 0 0 1 12 2.5a9.976 9.976 0 0 1 9.994 9.75c.002-.083.006-.166.006-.25 0-5.54-4.46-10-10-10z"/><path d="M552-354v10h2v-10zm0 12v2h2v-2z" transform="matrix(1 0 0 -1 -541 -334.5)" style="opacity:.2"/><path d="M552-354v10h2v-10zm0 12v2h2v-2z" transform="matrix(1 0 0 -1 -541 -335)" style="fill:#f4f4f7"/></svg>
